icons/svg/seamark_big/landmark_dome_big.svg

<?xml version="1.0" encoding="UTF-8" standalone="no"?>
<svg
   xmlns:dc="http://purl.org/dc/elements/1.1/"
   xmlns:cc="http://creativecommons.org/ns#"
   xmlns:rdf="http://www.w3.org/1999/02/22-rdf-syntax-ns#"
   xmlns:svg="http://www.w3.org/2000/svg"
   xmlns="http://www.w3.org/2000/svg"
   xmlns:sodipodi="http://sodipodi.sourceforge.net/DTD/sodipodi-0.dtd"
   xmlns:inkscape="http://www.inkscape.org/namespaces/inkscape"
   width="1060"
   height="1060"
   id="svg2"
   version="1.1"
   inkscape:version="0.48.4 r9939"
   sodipodi:docname="landmark_dome.svg">
  <defs
     id="defs13">
    <inkscape:path-effect
       effect="gears"
       id="path-effect3774"
       is_visible="true"
       teeth="6"
       phi="-1.2" />
    <inkscape:path-effect
       effect="bend_path"
       id="path-effect3772"
       is_visible="false"
       bendpath="m 95.790098,316.51174 c 144.429032,-206.42506 223.313032,-11.7428 339.548092,0"
       prop_scale="1.19"
       scale_y_rel="false"
       vertical="false"
       bendpath-nodetypes="cc" />
  </defs>
  <sodipodi:namedview
     pagecolor="#ffffff"
     bordercolor="#666666"
     borderopacity="1"
     objecttolerance="10"
     gridtolerance="10"
     guidetolerance="10"
     inkscape:pageopacity="0"
     inkscape:pageshadow="2"
     inkscape:window-width="1920"
     inkscape:window-height="1004"
     id="namedview11"
     showgrid="false"
     inkscape:zoom="0.28771931"
     inkscape:cx="360.1485"
     inkscape:cy="562.2607"
     inkscape:window-x="1680"
     inkscape:window-y="0"
     inkscape:window-maximized="1"
     inkscape:current-layer="svg2"
     inkscape:snap-object-midpoints="true"
     inkscape:snap-center="true" />
  <metadata
     id="metadata2975">image/svg+xmlen<rdf:RDF>
  <cc:Work
     rdf:about="">
    <dc:format>image/svg+xml</dc:format>
    <dc:type
       rdf:resource="http://purl.org/dc/dcmitype/StillImage" />
    <dc:title></dc:title>
  </cc:Work>
</rdf:RDF>
</metadata>
  <path
     sodipodi:type="inkscape:offset"
     inkscape:radius="30.550758"
     inkscape:original="M 509.875 360.46875 C 441.79348 360.46875 386.37017 415.84884 386.03125 483.96875 C 385.72765 485.01207 385.59375 486.07227 385.59375 487.125 L 385.59375 724.0625 L 349.09375 724.0625 L 349.09375 747.09375 L 463.40625 747.09375 C 468.58547 767.80534 487.39336 783.25 509.65625 783.25 C 531.91913 783.25 550.75443 767.80534 555.9375 747.09375 L 670.21875 747.09375 L 670.21875 724.0625 L 633.625 724.0625 L 633.625 487.125 C 633.625 486.87714 633.60905 486.62306 633.59375 486.375 A 10.71875 10.71875 0 0 0 633.75 484.59375 C 633.75 416.18637 578.16572 360.46875 509.875 360.46875 z M 509.875 381.90625 C 563.67107 381.90625 607.5971 423.1951 611.9375 476 L 407.8125 476 C 412.15289 423.1951 456.07893 381.90625 509.875 381.90625 z M 407.03125 497.4375 L 612.1875 497.4375 L 612.1875 723.53125 A 10.713571 10.713571 0 0 0 612.0625 724.0625 L 555.9375 724.0625 C 550.75443 703.35091 531.91913 687.90625 509.65625 687.90625 C 487.39336 687.90625 468.58547 703.35091 463.40625 724.0625 L 407.125 724.0625 A 10.713571 10.713571 0 0 0 407.03125 723.65625 L 407.03125 497.4375 z M 509.65625 705.0625 C 526.6108 705.0625 540.1875 718.6392 540.1875 735.59375 C 540.1875 752.5483 526.6108 766.09375 509.65625 766.09375 C 492.7017 766.09375 479.15625 752.5483 479.15625 735.59375 C 479.15625 718.6392 492.7017 705.0625 509.65625 705.0625 z "
     style="font-size:medium;font-style:normal;font-variant:normal;font-weight:normal;font-stretch:normal;text-indent:0;text-align:start;text-decoration:none;line-height:normal;letter-spacing:normal;word-spacing:normal;text-transform:none;direction:ltr;block-progression:tb;writing-mode:lr-tb;text-anchor:start;baseline-shift:baseline;opacity:0.372;color:#000000;fill:#e4e4e4;fill-opacity:1;fill-rule:nonzero;stroke:#a35151;stroke-width:0;stroke-linecap:round;stroke-linejoin:miter;stroke-miterlimit:4;stroke-opacity:1;stroke-dasharray:none;stroke-dashoffset:0;marker:none;visibility:visible;display:inline;overflow:visible;enable-background:accumulate;font-family:Sans;-inkscape-font-specification:Sans"
     id="path3872"
     d="m 509.875,329.90625 c -83.48744,0 -151.94855,67.44637 -154.21875,150.46875 -0.37554,2.32748 -0.625,4.60593 -0.625,6.75 l 0,206.375 -5.9375,0 a 30.553813,30.553813 0 0 0 -30.5625,30.5625 l 0,23.03125 a 30.553813,30.553813 0 0 0 30.5625,30.5625 l 94.6875,0 c 13.96329,21.75401 38.37133,36.15625 65.875,36.15625 27.51229,0 51.90378,-14.38914 65.875,-36.15625 l 94.6875,0 a 30.553813,30.553813 0 0 0 30.5625,-30.5625 l 0,-23.03125 A 30.553813,30.553813 0 0 0 670.21875,693.5 l -6.03125,0 0,-206.375 c 0,-0.44538 -0.0221,-0.41874 -0.0312,-0.75 0.0672,-0.63496 0.15732,-1.92352 0.15625,-1.65625 a 30.553813,30.553813 0 0 0 0,-0.125 c 0,-84.95669 -69.52944,-154.6875 -154.4375,-154.6875 z m 0,82.5625 c 25.70814,0 47.85574,13.05271 60.53125,32.96875 l -121.0625,0 c 12.67551,-19.91604 34.82311,-32.96875 60.53125,-32.96875 z M 437.59375,528 l 144.03125,0 0,165.5 -6.09375,0 c -13.97122,-21.76711 -38.36271,-36.15625 -65.875,-36.15625 -27.50367,0 -51.91171,14.40224 -65.875,36.15625 l -6.1875,0 0,-165.5 z" />
  <path
     sodipodi:type="arc"
     style="color:#000000;fill:none;stroke:#000000;stroke-width:30.33652306;stroke-linecap:butt;stroke-linejoin:miter;stroke-miterlimit:4;stroke-opacity:1;stroke-dasharray:none;stroke-dashoffset:0;marker:none;visibility:visible;display:inline;overflow:visible;enable-background:accumulate"
     id="path2985"
     sodipodi:cx="510.26483"
     sodipodi:cy="737.74365"
     sodipodi:rx="69.120766"
     sodipodi:ry="69.120766"
     d="m 579.3856,737.74365 a 69.120766,69.120766 0 1 1 -138.24153,0 69.120766,69.120766 0 1 1 138.24153,0 z"
     transform="matrix(0.56558888,0,0,0.56558888,221.05031,318.17685)" />
  <path
     style="font-size:medium;font-style:normal;font-variant:normal;font-weight:normal;font-stretch:normal;text-indent:0;text-align:start;text-decoration:none;line-height:normal;letter-spacing:normal;word-spacing:normal;text-transform:none;direction:ltr;block-progression:tb;writing-mode:lr-tb;text-anchor:start;baseline-shift:baseline;color:#000000;fill:#000000;fill-opacity:1;stroke:none;stroke-width:30.00000191;marker:none;visibility:visible;display:inline;overflow:visible;enable-background:accumulate;font-family:Sans;-inkscape-font-specification:Sans"
     d="m 349.07496,723.91311 0,23.04878 125.55225,0 0,-23.04878 z m 195.57908,0 0,23.04878 125.55225,0 0,-23.04878 z"
     id="path3754"
     inkscape:connector-curvature="0"
     sodipodi:nodetypes="cccccccccc" />
  <path
     style="fill:none;stroke:#000000;stroke-width:21.42499924;stroke-linecap:round;stroke-linejoin:round;stroke-miterlimit:10;stroke-dasharray:none"
     inkscape:connector-curvature="0"
     stroke-miterlimit="10"
     d="m 623.00794,484.45258 c 0,-62.63117 -50.65636,-113.40356 -113.14438,-113.40356 -62.48802,0 -113.14437,50.77239 -113.14437,113.40356"
     id="path9" />
  <path
     style="color:#000000;fill:none;stroke:#000000;stroke-width:21.42499924;stroke-linecap:round;stroke-linejoin:round;stroke-miterlimit:10;stroke-opacity:1;stroke-dashoffset:0;marker:none;visibility:visible;display:inline;overflow:visible;enable-background:accumulate"
     d="m 622.88819,726.1044 c 0,0.21877 -0.135,0.3949 -0.30268,0.3949 m -225.98991,0 c -0.16769,0 -0.30268,-0.17613 -0.30268,-0.3949 m 0,0 0,-239.12556 c 0,-0.21877 0.13499,-0.39489 0.30268,-0.39489 l 225.98991,0 c 0.16768,0 0.30268,0.17612 0.30268,0.39489 l 0,239.12556"
     id="rect3805"
     inkscape:connector-curvature="0"
     sodipodi:nodetypes="cccccssssc" />
</svg>

<svg width="1060" height="1060" viewBox="0 0 1060 1060" fill="none" xmlns="http://www.w3.org/2000/svg">
<path opacity="0.372" d="M509.875 329.906C426.388 329.906 357.926 397.353 355.656 480.375C355.281 482.702 355.031 484.981 355.031 487.125V693.5H349.094C345.08 693.499 341.105 694.289 337.397 695.824C333.688 697.36 330.318 699.611 327.48 702.449C324.642 705.287 322.391 708.657 320.855 712.365C319.32 716.074 318.53 720.049 318.531 724.062V747.094C318.53 751.108 319.32 755.082 320.855 758.791C322.391 762.499 324.642 765.869 327.48 768.707C330.318 771.545 333.688 773.797 337.397 775.332C341.105 776.868 345.08 777.657 349.094 777.656H443.781C457.745 799.41 482.153 813.812 509.656 813.812C537.169 813.812 561.56 799.423 575.531 777.656H670.219C674.233 777.657 678.207 776.868 681.916 775.332C685.624 773.797 688.994 771.545 691.832 768.707C694.67 765.869 696.922 762.499 698.457 758.791C699.993 755.082 700.782 751.108 700.781 747.094V724.062C700.782 720.049 699.993 716.074 698.457 712.365C696.922 708.657 694.67 705.287 691.832 702.449C688.994 699.611 685.624 697.36 681.916 695.824C678.207 694.289 674.233 693.499 670.219 693.5H664.188V487.125C664.188 486.68 664.165 486.706 664.156 486.375C664.224 485.74 664.314 484.451 664.313 484.719C664.313 484.677 664.313 484.635 664.313 484.594C664.313 399.637 594.783 329.906 509.875 329.906H509.875ZM509.875 412.469C535.583 412.469 557.731 425.521 570.406 445.438H449.344C462.019 425.521 484.167 412.469 509.875 412.469ZM437.594 528H581.625V693.5H575.531C561.56 671.733 537.169 657.344 509.656 657.344C482.153 657.344 457.745 671.746 443.781 693.5H437.594V528Z" fill="#E4E4E4"/>
<path d="M548.744 735.437C548.745 740.571 547.735 745.655 545.77 750.399C543.806 755.143 540.927 759.453 537.296 763.084C533.666 766.715 529.356 769.596 524.613 771.561C519.869 773.526 514.785 774.537 509.65 774.537C504.516 774.537 499.432 773.526 494.688 771.561C489.945 769.596 485.635 766.715 482.005 763.084C478.374 759.453 475.495 755.143 473.53 750.399C471.566 745.655 470.556 740.571 470.557 735.437C470.556 730.302 471.566 725.218 473.53 720.474C475.495 715.73 478.374 711.42 482.005 707.789C485.635 704.158 489.945 701.277 494.688 699.312C499.432 697.347 504.516 696.336 509.65 696.336C514.785 696.336 519.869 697.347 524.613 699.312C529.356 701.277 533.666 704.158 537.296 707.789C540.927 711.42 543.806 715.73 545.77 720.474C547.735 725.218 548.745 730.302 548.744 735.437Z" stroke="black" stroke-width="17.158"/>
<path d="M349.075 723.913V746.962H474.627V723.913H349.075ZM544.654 723.913V746.962H670.206V723.913H544.654Z" fill="black"/>
<path d="M623.008 484.453C623.008 421.821 572.352 371.049 509.864 371.049C447.376 371.049 396.719 421.821 396.719 484.453" stroke="black" stroke-width="21.425" stroke-miterlimit="10" stroke-linecap="round" stroke-linejoin="round"/>
<path d="M396.293 726.104V486.979C396.293 486.76 396.428 486.584 396.596 486.584H622.586C622.753 486.584 622.888 486.76 622.888 486.979V726.104M622.888 726.104C622.888 726.323 622.753 726.499 622.586 726.499L622.888 726.104ZM396.596 726.499C396.428 726.499 396.293 726.323 396.293 726.104L396.596 726.499Z" stroke="black" stroke-width="21.425" stroke-miterlimit="10" stroke-linecap="round" stroke-linejoin="round"/>
</svg>
